X:40
T:Hibernia. RH.040
R:air or March?
S:Rev.R.Harrison’s MS,c1815,Cumbria
O:England
A:Temple Sowerby,Cumbria
Z:vmp.Simon Wilson. Review PJH, 2008.
M:6/8
L:1/8
Q:3/8=120
K:D
d|f2e d2B|ABA AFD|DFA d2f|g2e e2d|\
f2e d2B|ABA AFD|DFA A2g|f2d d2:|!
g|fga afa|afa ad’c’|b2e b2e|b2e gfe|\
fga afa|afa ad’c’|bab e2f|g2f ” DC”e2|!
|:z|DED F2D|d’2d ded|EFE G2E|e’2e efe|\
g2a bge|gfe z{gfe}z2|f2g afd|!
fed z{fed}z2|f2g a2a|abc’ d’2e’|\
f’2d’ e’2c’|d’2b a2f|gab e2f|g2f e2:|!
A|ddd eee|fff eee|ddd eee|fff eee|\
d2f d2f|d2f d2f|d2z d2z|d3 zz2|]

